!!!!SEGMENT: pl-wnifc--13846--001-028_anonim--piesni-polskie-i-ruskie-ludu-galicyjskiego-28-niech-nam-zyje-gospodarz.krn
!!!kernsource:
!!!cenid: 18xx:3250
!!!COM: Anonim
!!!COM-rismID: pe30004985
!!!CDT:
!!!CNT:
!!!GTL: Pieśni polskie i ruskie ludu galicyjskiego
!!!OTL: 28. Niech nam żyje gospodarz
!!!OMV: 028
!!!PDT: 1833
!!!AGN:
!!!YEC: Copyright 2022 Narodowy Instytut Fryderyka Chopina (https://polishscores.org)
!!!YEM: License CC-BY-4.0 (https://creativecommons.org/licenses/by/4.0)
!!!SMS-siglum: PL-Wnifc
!!!SMS-shelfmark: 13846
!!!SMS-shelfwork: 001-028 G
!!!SMS-variant:
!!!SMS-altvar:
!!!NIFC-rismSourceID: 1001036701
!!!NIFC-rismChildID: 1001036786
!!!NIFC-islandoraID: nifc:210326
!!!URL-pdf-islandora: https://repozytorium.nifc.pl/islandora/object/nifc%3A210326/datastream/PDF/view
!!!URL-scan:
!!!IIIF:
!!!ONB-nifc:
!!!OMD: Allegro non tanto.
!!!AIN: 1 piano 1 vox
!!!key: G
**kern	**kern	**kern	**text
*part2	*part2	*part1	*
*staff3	*staff2	*staff1	*
*I"Fortepian	*I"Fortepian	*I"Głos	*
*Ipiano	*Ipiano	*Ivox	*
*ICklav	*ICklav	*ICvox	*
*IGacmp	*IGacmp	*IGsolo	*
*clefF4	*clefG2	*clefG2	*
*k[f#]	*k[f#]	*k[f#]	*
*G:	*G:	*G:	*
*M2/4	*M2/4	*M2/4	*
*>[A,A,B,B]	*>[A,A,B,B]	*>[A,A,B,B]	*
=1	=1	=1	=1
*>A	*>A	*>A	*
!	!	!LO:TX:a:t=D.a.16.	!
*^	*	*	*
4r	2GG\	8B/L 8g/	8g/	Niech
.	.	8B/ 8g/	8g/	nam
4G/	.	8d/ 8b/	8b/	ży-
.	.	8d/J 8b/	8b/	-je
=2	=2	=2	=2	=2
4F#/	4D\	8c/L 8a/	8a/	go-
.	.	8c/J 8a/	8a/	-spo-
4G/	4G\	4B/ 4g/	4g/	-darz
*v	*v	*	*	*
!!LO:LB:g=original
=3	=3	=3	=3
8GGG/ 8GG/	4g\ 4b\	4b\	je-
8G\`L 8B\	.	.	.
(8B\ 8d\	4b\ 4dd\	4dd\	-go
8G\J) 8B\	.	.	.
=4	=4	=4	=4
8D\L 8F#\ 8d\	8a\L 8cc\	8cc\	ca-
8D\J 8F#\ 8d\	8a\J 8cc\	8cc\	-ły
4D\ 4G\ 4d\	4g\ 4b\	4b\	dom,
=5	=5	=5	=5
*^	*	*	*
8r	2GG\	8B/L 8g/	8g/	kto
8D/L	.	8B/ 8g/	8g/	to
8G/	.	8d/ 8b/	8b/	zdro-
8D/J	.	8d/J 8b/	8b/	-wie
*v	*v	*	*	*
!!LO:PB:g=original
=6	=6	=6	=6
8D\L 8F#\	8c/L 8d/ 8a/	8a\	nie
8D\ 8F#\	8c/ 8d/ 8a/	8a/	wy-
8G\	8B/ 8d/ 8g/	8g/	-pi-
8G\J	8B/J 8d/ 8g/	8g/	-je,
=7	=7	=7	=7
!	!LO:TX:b:t=8GG i 2GG zapisane jako	!	!
*^	*^	*	*
8GG/L	2GG\	4b/	4g\	4b/	precz
8D/	.	.	.	.	.
8G/	.	4dd/	4b\ 4dd\	4dd\	ztąd
8D/J	.	.	.	.	.
*v	*v	*	*	*	*
*	*v	*v	*	*
=8	=8	=8	=8
8D\L 8F#\	8a\L 8cc\	8cc\	won,
8D\J 8F#\	8a\J 8cc\	8cc\	won,
!!LO:LB:g=original
=-	=-	=-	=-
4G\	4g\ 4b\	4b\	won;
=9:|!	=9:|!	=9:|!	=9:|!
*>B	*>B	*>B	*
4r	8g/L 8b/	8b/	nie-
.	8b\ 8dd\	8dd\	-chaj
4GG/	8b\ 8dd\	8dd\	trą-
.	8b\J 8dd\	8dd\	-by
=10	=10	=10	=10
*^	*	*	*
4r	(2DD\	8b\L 8dd\	8dd\	ra,
.	.	8a\J 8cc\	8cc\	ra,
4D/)	.	4a\ 4cc\	4cc\	ra,
*v	*v	*	*	*
!!LO:LB:g=original
=11	=11	=11	=11
4r	8f#/L 8a/	8a/	nie-
.	8a/J 8cc/	8cc\	-chaj
4DD/	8a\L 8cc\	8cc\	ko-
.	8a\J 8cc\	8cc\	-tły
=12	=12	=12	=12
*^	*	*	*
4r	(<2GGG/	8a\L 8cc\	8cc\	bum,
.	.	8g\J 8b\	8b\	bum,
4GG/)	.	4g\ 4b\	4b/	bum,
*v	*v	*	*	*
=13	=13	=13	=13
8BB/L 8D/	8d/L 8g/	8g/	nie-
8BB/J 8D/	8d/J 8g/	8g/	-chaj
!!LO:LB:g=original
=-	=-	=-	=-
8BB/L 8D/	8d/L 8g/ 8b/	8b/	z_ar-
8BB/J 8D/	8d/J 8g/ 8b/	8b/	-mat
=14	=14	=14	=14
*^	*	*	*
!LO:N:vis=2	!	!	!	!
8DD\^<L	2DD/	8d/L 8a/	8a/	da-
8D\ 8F#\ 8c\	.	8d/ 8a/	8a/	-ją
8D\ 8F#\ 8c\	.	8d/ 8a/ 8dd/	8dd/	o-
8D\J 8F#\ 8c\	.	8d/J 8a/ 8dd/	8dd\	-gnia,
=15	=15	=15	=15	=15
!LO:N:vis=2	!	!	!	!
8GG/^<L	2GG\	8d/L 8g/	8g/	od
8G/ 8B/	.	8d/ 8g/	8g/	wie-
8G/ 8B/	.	8d/ 8g/ 8b/	8b/	-czo-
8G/J 8B/	.	8d/J 8g/ 8b/	8b/	-ra
!!LO:PB:g=original
=16	=16	=16	=16	=16
!LO:N:vis=2	!	!	!	!
8DD/L	2DD\	8d/L 8f#/ 8a/	8a\	a-
8D/ 8A/ 8c/	.	8d/ 8f#/ 8a/	8a\	-że
8D/ 8A/ 8c/	.	8f#/ 8a/ 8dd/	8dd\	do
8D/J 8A/ 8c/	.	8f#/J 8a/ 8dd/	8dd\	dnia
*v	*v	*	*	*
=17	=17	=17	=17
4G\ 4B\	4g\ 4b\ 4dd\ 4gg\	4gg\	pif,
4D\ 4A\ 4c\	4d/ 4f#/ 4a/ 4dd/	4dd\	paf,
=18	=18	=18	=18
*	*^	*	*
4G\ 4B\	4g/ 4b/	4d\ 4g\	4b\	puf.
4r	4r;	4ryy	4r;	.
*	*v	*v	*	*
!!LO:LB:g=original
=:|!	=:|!	=:|!	=:|!
*-	*-	*-	*-
!!!system-decoration: s1,{(s2,s3)}
!!!RDF**kern: < = below
!!!RDF**kern: > = above
!!!ENC: Emilia Ziętek
!!!END: 2021-10-10
!!!ENC: Marta Chmielewska
!!!END: 2021-11-10
